assets/share.svg

<svg height="32" viewBox="0 0 26 32" width="26" xmlns="http://www.w3.org/2000/svg"><path d="m38.5901639 35.4634471c.6096589 0 .1200709-.5104121.1200709-1.1058928v-4.1258308l-.0850687-2.1267169.9499336 1.006646 2.1550731 2.2968543c.1984936.2268498.4962339.3402747.7656181.3402747.5813026 0 1.0350022-.4253434 1.0350022-1.006646 0-.2977404-.127603-.5245902-.3402747-.7372619l-4.7922021-4.6220647c-.2835622-.2835622-.5245901-.382809-.8081524-.382809-.2977403 0-.5387682.0992468-.8223305.382809l-4.792202 4.6220647c-.2126717.2126717-.3402747.4395215-.3402747.7372619 0 .5813026.4253433 1.006646 1.0208241 1.006646.2693841 0 .5813026-.1134249.7797962-.3402747l2.1550731-2.2968543.9499335-1.006646-.0850687 2.1267169v4.1258308c0 .5954807 1.5245902 1.1058928 2.134249 1.1058928zm7.1240585 21.5365529c2.9632255 0 4.4519274-1.4745237 4.4519274-4.3952149v-13.866194c0-2.9206912-1.4887019-4.3952149-4.4519274-4.3952149h-6.677891v10.4492689c0 .7797962-.6663713 1.4178113-1.4461675 1.4178113-.7939743 0-1.4603456-.6380151-1.4603456-1.4178113v-10.4492689h-6.677891c-2.9632255 0-4.4519273 1.4745237-4.4519273 4.3952149v13.866194c0 2.9206912 1.4887018 4.3952149 4.4519273 4.3952149z" fill="#fff" opacity=".5" transform="translate(-25 -25)"/></svg>

<?xml version="1.0" encoding="UTF-8"?>
<svg width="26px" height="32px" viewBox="0 0 26 32" version="1.1" xmlns="http://www.w3.org/2000/svg" xmlns:xlink="http://www.w3.org/1999/xlink">
    <title>􀈃</title>
    <g id="Assets" stroke="none" stroke-width="1" fill="none" fill-rule="evenodd" opacity="0.5">
        <g id="Group-4" transform="translate(-25.000000, -25.000000)" fill="#FFFFFF" fill-rule="nonzero">
            <g id="Calculator.5png">
                <path d="M38.5901639,35.4634471 C39.1998228,35.4634471 38.7102348,34.953035 38.7102348,34.3575543 L38.7102348,30.2317235 L38.6251661,28.1050066 L39.5750997,29.1116526 L41.7301728,31.4085069 C41.9286664,31.6353567 42.2264067,31.7487816 42.4957909,31.7487816 C43.0770935,31.7487816 43.5307931,31.3234382 43.5307931,30.7421356 C43.5307931,30.4443952 43.4031901,30.2175454 43.1905184,30.0048737 L38.3983163,25.382809 C38.1147541,25.0992468 37.8737262,25 37.5901639,25 C37.2924236,25 37.0513957,25.0992468 36.7678334,25.382809 L31.9756314,30.0048737 C31.7629597,30.2175454 31.6353567,30.4443952 31.6353567,30.7421356 C31.6353567,31.3234382 32.0607,31.7487816 32.6561808,31.7487816 C32.9255649,31.7487816 33.2374834,31.6353567 33.435977,31.4085069 L35.5910501,29.1116526 L36.5409836,28.1050066 L36.4559149,30.2317235 L36.4559149,34.3575543 C36.4559149,34.953035 37.9805051,35.4634471 38.5901639,35.4634471 Z M45.7142224,57 C48.6774479,57 50.1661498,55.5254763 50.1661498,52.6047851 L50.1661498,38.7385911 C50.1661498,35.8178999 48.6774479,34.3433762 45.7142224,34.3433762 L39.0363314,34.3433762 L39.0363314,44.7926451 C39.0363314,45.5724413 38.3699601,46.2104564 37.5901639,46.2104564 C36.7961896,46.2104564 36.1298183,45.5724413 36.1298183,44.7926451 L36.1298183,34.3433762 L29.4519273,34.3433762 C26.4887018,34.3433762 25,35.8178999 25,38.7385911 L25,52.6047851 C25,55.5254763 26.4887018,57 29.4519273,57 L45.7142224,57 Z" id="􀈃"></path>
            </g>
        </g>
    </g>
</svg>
